X: 1
T: The Curlew Hills
R: barndance
M: 4/4
L: 1/8
K: Gmaj
BA | GABc dgfa | g2B2 d3B | (3cde AB c2dc | (3Bcd GA BdBA |
GABc dgfa | g2B2 d3B | (3cde AB cAFA | G2 B2 G2 :|
|:Bc | d2 b2 c2 a2 | Bggf gdBG | FGAB cAFA | GFGA BABc |
d2 b2 c2 a2 | Bggf gdBG | FGAB cAFA | G2 B2 G2 :|


Tune 670	Setting 13712

